src/ui/webui/resources/cr_components/chromeos/network/cellular_locked.svg

<svg width="20" height="20" viewBox="0 0 20 20" xmlns="http://www.w3.org/2000/svg">
<path fill-rule="evenodd" clip-rule="evenodd" d="M14.1876 9.58912C14.4644 9.58912 14.7358 9.6125 15 9.65744V3.82508C15 3.09148 14.1249 2.7241 13.6131 3.24283L2.23957 15.5943C1.72779 16.113 2.09026 17 2.81403 17H9.96527C9.55054 16.2733 9.31317 15.4296 9.31317 14.5297C9.31317 11.8011 11.4955 9.58912 14.1876 9.58912ZM16 16V14H13V16H16ZM13 13C12.4477 13 12 13.4477 12 14V16C12 16.5523 12.4477 17 13 17H16C16.5523 17 17 16.5523 17 16V14C17 13.4477 16.5523 13 16 13V12.5C16 11.6716 15.3284 11 14.5 11C13.6716 11 13 11.6716 13 12.5V13ZM14 13H15V12.5C15 12.2239 14.7761 12 14.5 12C14.2239 12 14 12.2239 14 12.5V13Z"/>
</svg>

<svg width="20" height="20" viewBox="0 0 20 20" xmlns="http://www.w3.org/2000/svg"><path fill-rule="evenodd" clip-rule="evenodd" d="M14.188 9.59c.276 0 .548.023.812.067V3.825c0-.734-.875-1.1-1.387-.582L2.24 15.594c-.512.519-.15 1.406.574 1.406h7.151a4.97 4.97 0 0 1-.652-2.47c0-2.729 2.182-4.94 4.875-4.94ZM16 16v-2h-3v2h3Zm-3-3a1 1 0 0 0-1 1v2a1 1 0 0 0 1 1h3a1 1 0 0 0 1-1v-2a1 1 0 0 0-1-1v-.5a1.5 1.5 0 0 0-3 0v.5Zm1 0h1v-.5a.5.5 0 0 0-1 0v.5Z"/></svg>
